X:1
T:Helas, amy, ie congnoys
T:Pierre Sandrin
T:Source : Livre V contenant 25 chansons nouvelles à 4 parties---Paris---P.Attaingnant---1540. Editor : André Vierendeels (07/05/18) Notes : Original clefs : C1, C3, C3, F4 Original note values have been halved Editorial accidentals above the staff
T:Helas, amy, ie congnoys
T:©
T:©
C:Pierre Sandrin
Z:©
%%score [ 1 [ 2 3 ] 4 ]
L:1/8
Q:1/4=120
M:2/2
K:F
V:1 treble nm="Alto" snm="A"
V:2 treble-8 nm="Tenor 1" snm="T 1"
V:3 treble-8 nm="Tenor 2" snm="T 2"
V:4 bass nm="Bass" snm="B"
V:1
 G4 A2 A2 | A4 B4 | A2 B4 AG | F4 z2 F2 | G2 G2 AGAB | c2 CD EF G2- |"^#" G2 F2 G4 :: z2 G2 F2 G2 | %8
w: He- las, a-|my, ie|con- gnoys _ _|bien, que|ne puis ni- * * *|er mon _ _ _ of-|* fen- se,|i'en ay faict|
w: Et m'ap- per-|çoys as-|sez com- * *|bien, m'e-|stoit seu- re _ _ _|_ vos- * stre'ac- * coin-|* tan- ce,||
 A6 G2 | F2 F2 E4 | D2 A2 c3 B | A2 G4 F2 | G4 A4 | z4 G4 | A2 A2 A4 | B4 A2 B2- | B2 AG F4 | %17
w: preu- v'et|pe- ni- ten-|ce, dont mon cueur|est tres em-|pe- sché,|soy-|ez seur que|la re- pen-|* tan- * ce|
w: |||||||||
 z2 F2 G2 G2 | AGAB c2 CD | EF G4 F2 | G4 z4 | G4 A2 A2 | A4 B4 | A2 B4 AG | F4 z2 F2 | %25
w: suy- voit de|bien _ _ _ pres le _|_ _ _ pe-|ché,|soy- ez seur|que la|re- pen- tan- *|ce, suy-|
w: ||||||||
 G2 G2 AGAB | c2 CD EF G2- |"^#" G2 F2 G4- | G8 :| %29
w: voit de bien _ _ _|pres le _ _ _ _|_ pe- ché.|_|
w: ||||
V:2
 d4 f2 f2 | f4 f4 | f2 d4 c2 | d4 z2 d2 | d2 e2 f2 f2 | e6 d2 | d4 d4 :: z2 d2 d2 d2 | f6 e2 | %9
w: He- las, a-|my, ie|con- * gnois|bien, que|ne puis ni- er|mon of-|fen- se,|i'en ay faict|preu- v'et|
w: Et m'ap- per-|çoys as-|sez com- *|bien, m'e-|stoit seu- re vo-|stre'ac- coin-|tan- ce,|||
 d2 d2 c4 | A2 A2 f2 f2 | e2 e2 d4 | G4 d4 | z4 d4 | f2 f2 f4 | f4 f2 d2- | dc/B/ c2 d4 | %17
w: pe- ni- ten-|ce, dont mon cueur|est tres em-|pe- sché,|soy-|ez seur que|la re- pen-|* * * tan- ce,|
w: ||||||||
 z2 d2 d2 e2 | f2 f2 e4- | e2 d2 d4 | B4 z4 | d4 f2 f2 | f4 f4 | f2 d3 c/B/ c2 | d4 z2 d2 | %25
w: suy- voit de|bien pres le-|* * pe-|ché,|soy- ez seur|que la|re- pen- * * tan-|ce, suy-|
w: ||||||||
 d2 e2 f2 f2 | e6 d2 | d4 B4- | B8 :| %29
w: voit de bien pres|le _|pe- ché.|_|
w: ||||
V:3
 G4 c2 c2 | c4 d4 | c2 B2 G4 | A4 z2 A2 | B2 B2 c2 F2 | G6 B2 | A4 G4 :: z2 B2 A2 B2 | c4 c3 B | %9
w: He- las, a-|my, ie|con- * gnois|bien, que|ne puis ni- er|mon of-|fen- se,|i'en ay faict|preu- v'et pe-|
w: Et m'ap- per-|çois as-|sez com- *|bien, m'e-|stoit seu- re vo-|stre'ac- coin-|tan- ce,,|||
 A2 B2 G4 | F4 z2 A2 | c3 B A2 B2 | B2 AG F4 | z4 G4 | c2 c2 c4 | d4 c2 B2 | G4 A4 | z2 A2 B2 B2 | %18
w: ni- ten- *|ce, dont|mon cueur est tres|em- pe- * sché,|soy-|ez seur que|la re- pen-|tan- ce|suy- voit de|
w: |||||||||
 c2 F2 G4- | G2 B2 A4 | G4 z4 | G4 c2 c2 | c4 d4 | c2 B2 G4 | A4 z2 A2 | B2 B2 c2 F2 | G6 B2 | %27
w: bien pres le|_ _ pe-|ché,|soy- ez seur|que la|re- pen- tan-|ce, suy-|voit de bien _|pres le|
w: |||||||||
 A4 G4- | G8 :| %29
w: pe- ché.|_|
w: ||
V:4
 G,4 F,2 F,2 | F,4 B,,4 | F,2 G,2 _E,4 | D,4 z2 D,2 | G,2 G,2 F,2 D,2 | C,6 G,,2 | D,4 G,,4 :: %7
w: He- las, a-|my, ie|con- * gnois|bien, que|ne puis ni- er|mon of-|fen- se,|
w: Et m'ap- per-|çois as-|sez com- *|bien, m'e-|stoit seu- re vo-|stre'ac- coin-|tan- ce,|
 z2 G,2 D,2 G,2 | F,6 C,2 | D,2 B,,2 C,4 | D,2 F,2 F,2 F,2 | C,2 C,2 D,4 |"^b" E,4 D,4 | z4 G,4 | %14
w: i'en ay faict|preu- v'et|pe- ni- ten-|ce, dont mon cueur|est tres em-|pe- sché,|soy-|
w: |||||||
"^#" F,2 F,2 F,4 | B,,4 F,2 G,2 | _E,4 D,4 | z2 D,2 G,2 G,2 | F,2 D,2 C,4- | C,2 G,,2 D,4 | %20
w: ez seur que|la re- pen-|tan- ce|suy- voit de|bien pres le|_ _ pe-|
w: ||||||
 G,,4 z4 | G,4 F,2 F,2 | F,4 B,,4 | F,2 G,2 _E,4 | D,4 z2 D,2 | G,2 G,2 F,2 D,2 | C,6 G,,2 | %27
w: ché,|soy- ez seur|que la|re- pen- tan-|ce, suy-|voit de bien _|pres le|
w: |||||||
 D,4 G,,4- | G,,8 :| %29
w: pe- ché.|_|
w: ||

